flaticon/army-badges/aeroplane-3.svg

<svg xmlns="http://www.w3.org/2000/svg" width="32" height="32" viewBox="0 0 24 24">
    <path d="M 21.441406 16.078125 L 19.601562 14.363281 L 19.601562 11.640625 C 19.601562 11.039062 19.160156 10.480469 18.601562 10.398438 C 18.28125 10.359375 17.921875 10.441406 17.640625 10.679688 C 17.359375 10.921875 17.199219 11.238281 17.199219 11.601562 L 17.199219 12.121094 L 16.640625 11.601562 C 15.960938 10.960938 15.558594 10.078125 15.558594 9.160156 C 15.558594 8.039062 15.121094 6.960938 14.320312 6.199219 L 13.988281 5.867188 C 13.90625 4.257812 13.5625 2.570312 13 0.878906 L 12.921875 0.679688 C 12.800781 0.28125 12.441406 0 12 0 C 11.558594 0 11.199219 0.28125 11.078125 0.679688 L 11 0.878906 C 10.441406 2.558594 10.125 4.257812 10.027344 5.851562 L 9.640625 6.238281 C 8.839844 7 8.398438 8.078125 8.398438 9.199219 C 8.398438 10.121094 8 11 7.320312 11.640625 L 6.800781 12.125 L 6.800781 11.640625 C 6.800781 11.039062 6.359375 10.480469 5.800781 10.398438 C 5.480469 10.359375 5.121094 10.441406 4.839844 10.679688 C 4.558594 10.921875 4.398438 11.238281 4.398438 11.601562 L 4.398438 14.367188 L 2.519531 16.121094 C 2.441406 16.199219 2.398438 16.28125 2.398438 16.398438 L 2.398438 18 C 2.398438 18.199219 2.519531 18.359375 2.679688 18.398438 L 4.398438 18.839844 L 4.398438 20.800781 C 4.398438 21.238281 4.761719 21.601562 5.199219 21.601562 L 6 21.601562 C 6.441406 21.601562 6.800781 21.238281 6.800781 20.800781 L 6.800781 19.453125 C 7.140625 19.578125 7.40625 19.8125 7.519531 20.121094 C 7.640625 20.441406 7.640625 20.800781 7.441406 21.121094 L 6.078125 23.398438 C 5.960938 23.519531 6 23.71875 6.078125 23.839844 C 6.160156 23.921875 6.28125 24 6.398438 24 C 6.441406 24 6.441406 24 6.480469 24 L 10.078125 23.199219 C 10.238281 23.160156 10.359375 23.039062 10.398438 22.878906 L 10.652344 21.613281 C 11.042969 21.871094 11.511719 22 12 22 C 12.484375 22 12.949219 21.875 13.347656 21.609375 L 13.601562 22.878906 C 13.640625 23.039062 13.761719 23.160156 13.921875 23.199219 L 17.519531 24 C 17.558594 24 17.558594 24 17.601562 24 C 17.71875 24 17.839844 23.960938 17.921875 23.839844 C 18 23.71875 18 23.519531 17.921875 23.398438 L 16.558594 21.121094 C 16.359375 20.800781 16.320312 20.480469 16.480469 20.121094 C 16.632812 19.773438 16.863281 19.539062 17.199219 19.449219 L 17.199219 20.800781 C 17.199219 21.238281 17.558594 21.601562 18 21.601562 L 18.800781 21.601562 C 19.238281 21.601562 19.601562 21.238281 19.601562 20.800781 L 19.601562 18.808594 L 21.28125 18.359375 C 21.441406 18.28125 21.601562 18.160156 21.601562 17.960938 L 21.601562 16.359375 C 21.601562 16.28125 21.519531 16.160156 21.441406 16.078125 Z M 5.199219 11.601562 C 5.199219 11.480469 5.238281 11.199219 5.601562 11.199219 C 5.839844 11.199219 6 11.398438 6 11.601562 L 6 12.839844 L 5.199219 13.601562 Z M 18 11.601562 C 18 11.480469 18.039062 11.398438 18.160156 11.320312 C 18.238281 11.238281 18.359375 11.199219 18.480469 11.238281 C 18.640625 11.28125 18.800781 11.480469 18.800781 11.679688 L 18.800781 13.617188 L 18 12.871094 Z M 6 20.800781 L 5.199219 20.800781 L 5.199219 19.078125 L 6 19.28125 Z M 7.238281 23.039062 L 8.121094 21.558594 C 8.441406 21.039062 8.480469 20.398438 8.238281 19.839844 C 8 19.28125 7.558594 18.878906 6.960938 18.71875 L 6.574219 18.617188 C 6.558594 18.609375 6.539062 18.605469 6.519531 18.601562 L 4.921875 18.160156 C 4.871094 18.144531 4.8125 18.132812 4.757812 18.132812 L 3.199219 17.71875 L 3.199219 16.601562 L 7.921875 12.199219 C 8.761719 11.398438 9.238281 10.320312 9.238281 9.160156 C 9.238281 8.382812 9.503906 7.640625 10 7.050781 C 10 7.101562 10 7.152344 10 7.199219 L 10 20.800781 C 10 20.835938 10.003906 20.867188 10.011719 20.898438 L 9.679688 22.480469 Z M 12 21.199219 C 11.519531 21.199219 11.121094 21.039062 10.800781 20.679688 L 10.800781 7.199219 C 10.800781 7.007812 10.800781 6.8125 10.800781 6.613281 C 10.832031 4.886719 11.148438 2.992188 11.761719 1.160156 L 11.839844 0.960938 C 11.878906 0.839844 11.960938 0.800781 12 0.800781 C 12.039062 0.800781 12.121094 0.839844 12.160156 0.960938 L 12.238281 1.160156 C 12.773438 2.757812 13.082031 4.378906 13.175781 5.925781 C 13.164062 5.964844 13.160156 6 13.160156 6.039062 C 13.199219 6.480469 13.199219 6.839844 13.199219 7.199219 L 13.199219 20.679688 C 12.921875 21.039062 12.480469 21.199219 12 21.199219 Z M 18.800781 20.800781 L 18 20.800781 L 18 19.28125 L 18.800781 19.039062 Z M 20.800781 17.71875 L 19.324219 18.117188 C 19.242188 18.105469 19.160156 18.132812 19.078125 18.160156 L 17.480469 18.601562 C 17.460938 18.609375 17.445312 18.617188 17.429688 18.625 L 17.078125 18.71875 C 16.480469 18.878906 16.039062 19.28125 15.800781 19.839844 C 15.558594 20.398438 15.601562 21.039062 15.917969 21.558594 L 16.800781 23.039062 L 14.359375 22.480469 L 14 20.761719 L 14 7.199219 C 14.003906 7.136719 14.003906 7.070312 14.003906 7.007812 C 14.523438 7.605469 14.800781 8.363281 14.800781 9.160156 C 14.800781 10.320312 15.28125 11.398438 16.121094 12.199219 L 17.25 13.261719 C 17.269531 13.296875 17.292969 13.332031 17.320312 13.359375 L 18.921875 14.839844 C 18.9375 14.855469 18.957031 14.871094 18.976562 14.886719 L 20.800781 16.601562 Z M 20.800781 17.71875"/>
    <path d="M7.878906 14.519531C7.71875 14.359375 7.480469 14.359375 7.320312 14.519531L6.121094 15.71875C5.960938 15.878906 5.960938 16.121094 6.121094 16.28125L7.320312 17.480469C7.398438 17.558594 7.480469 17.601562 7.601562 17.601562 7.71875 17.601562 7.800781 17.558594 7.878906 17.480469L9.078125 16.28125C9.238281 16.121094 9.238281 15.878906 9.078125 15.71875zM7.601562 16.640625L6.960938 16 7.601562 15.359375 8.238281 16zM16.679688 14.519531C16.519531 14.359375 16.28125 14.359375 16.121094 14.519531L14.921875 15.71875C14.761719 15.878906 14.761719 16.121094 14.921875 16.28125L16.121094 17.480469C16.199219 17.558594 16.28125 17.601562 16.398438 17.601562 16.519531 17.601562 16.601562 17.558594 16.679688 17.480469L17.878906 16.28125C18.039062 16.121094 18.039062 15.878906 17.878906 15.71875zM16.398438 16.640625L15.761719 16 16.398438 15.359375 17.039062 16zM16.398438 16.640625"/>
</svg>

<svg xmlns="http://www.w3.org/2000/svg" width="32" height="32" viewBox="0 0 24 24">
    <path d="M21.441 16.078l-1.84-1.715v-2.722c0-.602-.44-1.16-1-1.243-.32-.039-.68.043-.96.282a1.195 1.195 0 0 0-.442.922v.52l-.558-.52c-.68-.641-1.082-1.524-1.082-2.442 0-1.12-.438-2.2-1.239-2.96l-.332-.333C13.906 4.257 13.563 2.57 13 .88l-.078-.2A.952.952 0 0 0 12 0c-.441 0-.8.281-.922.68L11 .879a19.703 19.703 0 0 0-.973 4.973l-.386.386C8.84 7 8.398 8.078 8.398 9.2c0 .922-.398 1.801-1.078 2.442l-.52.484v-.484c0-.602-.44-1.16-1-1.243-.32-.039-.679.043-.96.282a1.195 1.195 0 0 0-.442.922v2.765L2.52 16.121a.366.366 0 0 0-.122.277V18c0 .2.122.36.282.398l1.718.442v1.96c0 .438.364.802.801.802H6c.441 0 .8-.364.8-.801v-1.348c.34.125.606.36.72.668.12.32.12.68-.079 1l-1.363 2.277c-.117.122-.078.32 0 .442.082.082.203.16.32.16h.082l3.598-.8c.16-.04.281-.16.32-.321l.254-1.266c.391.258.86.387 1.348.387.484 0 .95-.125 1.348-.39l.254 1.269c.039.16.16.281.32.32L17.52 24h.082c.117 0 .238-.04.32-.16a.445.445 0 0 0 0-.442l-1.363-2.277c-.2-.32-.239-.64-.079-1 .153-.348.383-.582.72-.672v1.352c0 .437.359.8.8.8h.8c.438 0 .802-.363.802-.8v-1.992l1.68-.45c.16-.078.32-.199.32-.398v-1.602c0-.078-.082-.199-.16-.28zM5.2 11.602c0-.122.04-.403.403-.403a.4.4 0 0 1 .398.403v1.238l-.8.762zm12.801 0c0-.122.04-.204.16-.282a.309.309 0 0 1 .32-.082c.16.043.32.242.32.442v1.937l-.8-.746zM6 20.8h-.8v-1.723l.8.203zm1.238 2.238l.883-1.48c.32-.52.36-1.16.117-1.72a1.895 1.895 0 0 0-1.277-1.12l-.387-.102c-.015-.008-.035-.012-.054-.015l-1.598-.442a.577.577 0 0 0-.164-.027l-1.559-.414v-1.117l4.723-4.403A4.174 4.174 0 0 0 9.238 9.16c0-.777.266-1.52.762-2.11V20.8c0 .036.004.067.012.098L9.68 22.48zM12 21.2c-.48 0-.879-.16-1.2-.52V7.2v-.586c.032-1.726.348-3.62.962-5.453l.078-.2c.039-.12.12-.16.16-.16.04 0 .121.04.16.16l.078.2c.535 1.598.844 3.219.938 4.766a.378.378 0 0 0-.016.113c.04.441.04.8.04 1.16v13.48c-.278.36-.72.52-1.2.52zm6.8-.398H18v-1.52l.8-.242zm2-3.082l-1.476.398a.548.548 0 0 0-.246.043l-1.598.442c-.02.007-.035.015-.05.023l-.352.094c-.598.16-1.039.562-1.277 1.12-.242.56-.2 1.2.117 1.72l.883 1.48-2.442-.559L14 20.762V7.199c.004-.062.004-.129.004-.191A3.26 3.26 0 0 1 14.8 9.16c0 1.16.48 2.238 1.32 3.04l1.129 1.062c.02.035.043.07.07.097l1.602 1.48a.68.68 0 0 0 .055.048l1.824 1.715zm0 0"/>
    <path d="M7.879 14.52a.385.385 0 0 0-.559 0l-1.199 1.199a.39.39 0 0 0 0 .562l1.2 1.2c.077.078.16.12.28.12.118 0 .2-.042.278-.12l1.2-1.2a.39.39 0 0 0 0-.562zm-.277 2.12L6.96 16l.64-.64.637.64zm0 0M16.68 14.52a.385.385 0 0 0-.559 0l-1.2 1.199a.39.39 0 0 0 0 .562l1.2 1.2c.078.078.16.12.277.12a.369.369 0 0 0 .282-.12l1.199-1.2a.39.39 0 0 0 0-.562zm-.282 2.12l-.636-.64.636-.64.641.64zm0 0"/>
</svg>
